X:1
T:Temperance
T:Teetotaller's Reel
S:David Bromberg, sessions
M:C|
R:reel
K:G
D2|"G"G2GF GABc|dBge dBAc|"Em"BEED EFGA|"D"BGAF GFED|"G"G2GF GABc|dBge dBAc|"Em"BEED EFGA|"D"BGAF "G"G2:|
A2|"Em"Beed e2eg|feaf gfed|"D"Bdd^c d2de|fdaf gfed|"Em"Beed e2 eg|feaf gfed|BEED EFGA|"D"BGAF "G"G2:|

